X: 149126
M: C
L: 1/8
K: Am
|: (c/B/) |\
a>g e>d c>A G>E |[1 G2G2 G2z :|[2 A2A2 A2z ::\
ue |\
g>g g>a g>ec>e | g>g (3(gae) g3 ug |
a>g e>d c>A G>E | G2G2 G2- (3(GcB) |\
a>g e>d c>A G>E | A2A2 A2z :|


